X: 213
T: MISS SCOTT OF BELVUE
C: Wm SHEPHERD
R: Reel
B: Glen Collection p.21 #3
Z: 2011 John Chambers <jc:trillian.mit.edu>
M: C
L: 1/8
V: 1 middle=B clef=treble
V: 2 middle=d clef=bass
%%score {1 | 2}
K: C
%
V: 1
g !segno!|: ecTc2 {Bc}GcEc | ecTc2 {Bc}defa | ecTc2 {Bc}GcEc | FdEc DEFD :|
|: CE/F/ GE cEGE | CE/F/ GE DEFD | CE/F/ GE cEGE | FdEc DEFD !segno!:|
%
V: 2
z |:\
c2[c'2g2] [c'2e2][c'2g2] | [c'2g2c2][c'2g2c2] [b2g2c2][b2g2c2] |\
c2[c'2g2] [c'2e2][c'2g2] | [b2g2][c'2g2] [b2g2][b2g2] :|
|:\
c2[c'2g2] [c'2g2][c'2g2] | e2[c'2g2] [b2g2][b2g2] |\
c2[c'2g2] [c'2g2][c'2g2] | e2[c'2g2] [b2g2][b2g2] |]
